X:367
T:Entemediu (MG 83)
R:Marcha
C:Versin de Xuann de Mieres
S:Msica Tradicional Asturiana, (C) Tello & Tito. Asturies, 2001.
S:http://pagina.de/MusTradAst <telloytito@asturies.org>
A:Asturies
Z:Mtodu de Gaita 83
M:2/4
L:1/8
Q:1/4=100
E:Comp.
K:C
G/A/
|: c G/A/ c G/A/|EE ~E/D/E/G/|FF ~F/E/F/A/|G/A/G/E/ CG/A/|
c G/A/ c G/A/|EE ~E/D/E/G/|FD B,D|[1 C3 G/A/ :|[2 C2 {G}CC|
|: {E}D2 C/D/C/D/|{F}E3 D/E/|F2 ~F/E/F/A/|G/A/G/E/ CC|
{E}D2 C/D/C/D/|{F}E3 D/E/|F~DB,D|[1 C3 C :|[2 C4||
